app/_includes/svgs/technology-logos/logo_responsive-io.min.svg

<svg xmlns="http://www.w3.org/2000/svg" viewBox="0 0 150 100" enable-background="new 0 0 150 100"><g fill="#4D4D4D"><path d="M8.2 23c2.9-4.8 7.5-7.3 12.5-7.3v8.4c-6.9 0-11.4 3.8-11.5 13.9v28.3h-9.2v-49.7h6.6l1.6 6.4z"/><path d="M25.7 56.2h10.2v10.1h-10.2v-10.1z"/><path d="M44.8 0h10.2v9.4h-10.2v-9.4zm.4 16.6h9.3v49.6h-9.3v-49.6z"/><path d="M61.9 33.2c0-13.3 8.4-17.5 15.8-17.5s15.9 4.1 15.9 17.5v16.4c0 13.4-8.5 17.5-15.9 17.5s-15.8-4.2-15.8-17.5v-16.4zm22.4 4.7c0-10.9-2.7-13.7-6.6-13.7-4 0-6.5 2.8-6.5 13.7v7.1c.1 10.8 2.3 13.7 6.6 13.7 4 0 6.6-2.9 6.5-13.7v-7.1z"/></g></svg>

<svg xmlns="http://www.w3.org/2000/svg" viewBox="0 0 150 100" enable-background="new 0 0 150 100"><g fill="#4D4D4D"><path d="M8.2 23c2.9-4.8 7.5-7.3 12.5-7.3v8.4c-6.9 0-11.4 3.8-11.5 13.9v28.3H0V16.6h6.6L8.2 23z"/><path d="M25.7 56.2h10.2v10.1H25.7V56.2z"/><path d="M44.8 0H55v9.4H44.8V0zm.4 16.6h9.3v49.6h-9.3V16.6z"/><path d="M61.9 33.2c0-13.3 8.4-17.5 15.8-17.5s15.9 4.1 15.9 17.5v16.4c0 13.4-8.5 17.5-15.9 17.5s-15.8-4.2-15.8-17.5V33.2zm22.4 4.7c0-10.9-2.7-13.7-6.6-13.7-4 0-6.5 2.8-6.5 13.7V45c.1 10.8 2.3 13.7 6.6 13.7 4 0 6.6-2.9 6.5-13.7v-7.1z"/></g></svg>
